X:842
L:1/8
M:4/4
K:Dmin
 d4 A2 d2 | F2 d2 E2 d2 | e4 c2 e2 | fgfe d2 a2 | ag f2 efge | defg a2 A2 | G2 G2 G2 A2 | 
 GFGA c2 A2 | GFED C2 A,2 | G,2 A,2 C2 D2 | AGFE DEDC | A,2 C2 D2 E2 | F4 E2 F2 | G4 F2 G2 | 
{B} A2 F2{d} c2 A2 | GFED D4 :: a2 a2 a2 a2 | b2 a2 g2 f2 | b2 a2 g2 f2 | efed c2{B} A2 | 
 defe defe | cege cege | dfaf dfaf | gece gece | f2 c2 A2 F2 | d2 d2 (dc) (BA) | B2 A2 (AG) F2 | 
 EFED C4 | A,2 D2 DE F2 | E2 C2 EF G2 | F2 D2 FGAG | F2 A2 c4 | dcde f2 d2 | edef g2 e2 | 
 a2 d2{d} c2 AG | A2 d2 d4 :|

